Obsidian-SemiLight/actions/24s/games-highscores.svg

<svg viewBox="0 0 24 24" xmlns="http://www.w3.org/2000/svg"><path d="m16.978516 4c-1.513494.4377241-3.230074.6693848-4.978516.671875-1.748397-.0011317-3.4656465-.2314451-4.9804688-.6679688.022103.6894484.0771195 1.3454525.1367188 1.9960938h-.15625c0-1-1-1-1-1h-1-1v2h.0078125c-.0005556.0337531-.0078125.0657146-.0078125.0996094 0 3.7124316 2.506106 6.8099336 5.9238281 7.7207026.3409599.404748.7001889.718273 1.0761719.916016v2.263672h-1v1h-1v1h6v-1h-1v-1h-1v-2.263672c.375468-.197868.733706-.511699 1.074219-.916016 3.418656-.910152 5.925781-4.00761 5.925781-7.7207026 0-.0338948-.007257-.0658563-.007812-.0996094h.007812v-2h-1-1-.015625s-.70623.0051-.984375.9570312v.0429688h-.015625-.142578c.05971-.6518197.114651-1.3092529.136719-2zm-11.884766 2h.90625c.26795 1 1 1 1 1h.2636719c.3251719 2.6160501.9374852 4.849622 1.75 6.427734-2.3741173-1.117568-4.0136719-3.521132-4.0136719-6.3281246 0-.3754237.0373785-.7405027.09375-1.0996094zm6.90625 0 .619141 1.3164062 1.380859.2109376-1 1.0253906.236328 1.4472656-1.236328-.6835938-1.236328.6835938.236328-1.4472656-1-1.0253906 1.380859-.2109376zm6 0h.90625c.056371.3591067.09375.7241857.09375 1.0996094 0 2.8091836-1.642408 5.2136586-4.019531 6.3300786.81347-1.578391 1.428486-3.8116733 1.753906-6.429688h.265625s1 0 1-1z" fill="#4d4d4d"/></svg>

<svg xmlns="http://www.w3.org/2000/svg" viewBox="0 0 24 24">
  <defs id="defs3051">
    <style type="text/css" id="current-color-scheme">
      .ColorScheme-Text {
        color:#4d4d4d;
      }
      </style>
  </defs>
 <path style="fill:currentColor;fill-opacity:1;stroke:none" 
     d="M 16.978516 4 C 15.465022 4.4377241 13.748442 4.6693848 12 4.671875 C 10.251603 4.6707433 8.5343535 4.4404299 7.0195312 4.0039062 C 7.0416342 4.6933546 7.0966507 5.3493587 7.15625 6 L 7 6 C 7 5 6 5 6 5 L 5 5 L 4 5 L 4 7 L 4.0078125 7 C 4.0072569 7.0337531 4 7.0657146 4 7.0996094 C 4 10.812041 6.506106 13.909543 9.9238281 14.820312 C 10.264788 15.22506 10.624017 15.538585 11 15.736328 L 11 18 L 10 18 L 10 19 L 9 19 L 9 20 L 15 20 L 15 19 L 14 19 L 14 18 L 13 18 L 13 15.736328 C 13.375468 15.53846 13.733706 15.224629 14.074219 14.820312 C 17.492875 13.91016 20 10.812702 20 7.0996094 C 20 7.0657146 19.992743 7.0337531 19.992188 7 L 20 7 L 20 5 L 19 5 L 18 5 L 17.984375 5 C 17.984375 5 17.278145 5.0051 17 5.9570312 L 17 6 L 16.984375 6 L 16.841797 6 C 16.901507 5.3481803 16.956448 4.6907471 16.978516 4 z M 5.09375 6 L 6 6 C 6.26795 7 7 7 7 7 L 7.2636719 7 C 7.5888438 9.6160501 8.2011571 11.849622 9.0136719 13.427734 C 6.6395546 12.310166 5 9.906602 5 7.0996094 C 5 6.7241857 5.0373785 6.3591067 5.09375 6 z M 12 6 L 12.619141 7.3164062 L 14 7.5273438 L 13 8.5527344 L 13.236328 10 L 12 9.3164062 L 10.763672 10 L 11 8.5527344 L 10 7.5273438 L 11.380859 7.3164062 L 12 6 z M 18 6 L 18.90625 6 C 18.962621 6.3591067 19 6.7241857 19 7.0996094 C 19 9.908793 17.357592 12.313268 14.980469 13.429688 C 15.793939 11.851297 16.408955 9.6180147 16.734375 7 L 17 7 C 17 7 18 7 18 6 z "
     class="ColorScheme-Text"
     />
</svg>
